packages/nodes-base/nodes/Transform/Limit/limit.svg

<svg xmlns="http://www.w3.org/2000/svg" width="512" height="512" fill="none"><g fill="#2FB67C" fill-rule="evenodd" clip-path="url(#a)" clip-rule="evenodd"><path d="M512 458c0-6.627-5.373-12-12-12h-68c-6.627 0-12 5.373-12 12v24c0 6.627 5.373 12 12 12h68c6.627 0 12-5.373 12-12zm-140 0c0-6.627-5.373-12-12-12h-68c-6.627 0-12 5.373-12 12v24c0 6.627 5.373 12 12 12h68c6.627 0 12-5.373 12-12zm-140 0c0-6.627-5.373-12-12-12h-68c-6.627 0-12 5.373-12 12v24c0 6.627 5.373 12 12 12h68c6.627 0 12-5.373 12-12zm-140 0c0-6.627-5.373-12-12-12H12c-6.627 0-12 5.373-12 12v24c0 6.627 5.373 12 12 12h68c6.627 0 12-5.373 12-12zm152-222c-6.627 0-12-5.373-12-12V30c0-6.627 5.373-12 12-12h24c6.627 0 12 5.373 12 12v194c0 6.627-5.373 12-12 12z"/><path d="M149.577 146.982c9.398-9.346 24.594-9.304 33.941.095L256 219.964l72.482-72.887c9.347-9.399 24.543-9.441 33.941-.095s9.441 24.543.095 33.941l-89.5 90a24 24 0 0 1-34.036 0l-89.5-90c-9.346-9.398-9.304-24.594.095-33.941M0 350c0-6.627 5.373-12 12-12h488c6.627 0 12 5.373 12 12v24c0 6.627-5.373 12-12 12H12c-6.627 0-12-5.373-12-12z"/></g><defs><clipPath id="a"><path fill="#fff" d="M0 0h512v512H0z"/></clipPath></defs></svg>

<svg width="512" height="512" viewBox="0 0 512 512" fill="none" xmlns="http://www.w3.org/2000/svg">
<g clip-path="url(#clip0_1156_1031)">
<path fill-rule="evenodd" clip-rule="evenodd" d="M512 458C512 451.373 506.627 446 500 446L432 446C425.373 446 420 451.373 420 458L420 482C420 488.627 425.373 494 432 494L500 494C506.627 494 512 488.627 512 482L512 458Z" fill="#2FB67C"/>
<path fill-rule="evenodd" clip-rule="evenodd" d="M372 458C372 451.373 366.627 446 360 446L292 446C285.373 446 280 451.373 280 458L280 482C280 488.627 285.373 494 292 494L360 494C366.627 494 372 488.627 372 482L372 458Z" fill="#2FB67C"/>
<path fill-rule="evenodd" clip-rule="evenodd" d="M232 458C232 451.373 226.627 446 220 446L152 446C145.373 446 140 451.373 140 458L140 482C140 488.627 145.373 494 152 494L220 494C226.627 494 232 488.627 232 482L232 458Z" fill="#2FB67C"/>
<path fill-rule="evenodd" clip-rule="evenodd" d="M92 458C92 451.373 86.6274 446 80 446L12 446C5.37258 446 1.61231e-06 451.373 1.36164e-06 458L4.53879e-07 482C2.03209e-07 488.627 5.37259 494 12 494L80 494C86.6274 494 92 488.627 92 482L92 458Z" fill="#2FB67C"/>
<path fill-rule="evenodd" clip-rule="evenodd" d="M244 236C237.373 236 232 230.627 232 224L232 30C232 23.3726 237.373 18 244 18L268 18C274.627 18 280 23.3726 280 30L280 224C280 230.627 274.627 236 268 236L244 236Z" fill="#2FB67C"/>
<path fill-rule="evenodd" clip-rule="evenodd" d="M149.577 146.982C158.975 137.636 174.171 137.678 183.518 147.077L256 219.964L328.482 147.077C337.829 137.678 353.025 137.636 362.423 146.982C371.822 156.329 371.864 171.525 362.518 180.923L273.018 270.923C268.513 275.453 262.388 278 256 278C249.612 278 243.487 275.453 238.982 270.923L149.482 180.923C140.136 171.525 140.178 156.329 149.577 146.982Z" fill="#2FB67C"/>
<path fill-rule="evenodd" clip-rule="evenodd" d="M-2.1626e-06 350C-2.56072e-06 343.373 5.37258 338 12 338L500 338C506.627 338 512 343.373 512 350L512 374C512 380.627 506.627 386 500 386L12 386C5.37258 386 -3.22744e-07 380.627 -7.20868e-07 374L-2.1626e-06 350Z" fill="#2FB67C"/>
</g>
<defs>
<clipPath id="clip0_1156_1031">
<rect width="512" height="512" fill="white"/>
</clipPath>
</defs>
</svg>
